X:1
T:Title
%%score ( 1 2 ) { 3 | 4 }
L:1/8
Q:1/4=107
M:4/4
K:F
V:1 treble nm="Grand Piano, Soprano"
V:2 treble 
V:3 treble nm="Choir Pad, Bass"
V:4 bass 
V:1
 [FA]2 [FA]2 [FB]2 [FA]2 | [EA]2 [EG]2 [Ec]2 F2 | [CF]2 [CF]2 [FB]2 [FA]2 | [Fd]2 [GB]2 [EG]4 | %4
w: By~Henry~John~Gauntlett~(1805\-1876) * * *||||
 [DG]2 [^FA]2 [GB]2 [Dd]2 | [EG]2 [FA]2 [FB]2 [Ec]2 | F2 [FB]2 [FA]2 GF | [CF]2 [CE]2 [CF]4 | %8
w: ||||
 [DF]2 D2 [CF]2 [CF]2 | [DF]2 D2 [CF]2 [CF]2 | [=B,D]2 [CE]2 [CF]2 [B,F]2 | [CF]2 [CE]2 [CF]4- | %12
w: ||||
 [CF]4 z4 |] %13
w: |
V:2
 x8 | x8 | x8 | x8 | x8 | x8 | z4 z2 D2 | x8 | x8 | x8 | x8 | x8 | x8 |] %13
V:3
 C2 C2 D2 C2 | C2[K:bass] B,2 B,2 A,2 | B,2 C2 F,2 F,2 | F,2[K:treble] D2 C4 | %4
 D2 C2 B,2[K:bass] A,2 | G,2 F,2 G,2 G,2 | C2 B,2 C2 B,2 | A,2 G,2 A,4 | B,2 B,2 B,2 A,2 | %9
 A,2 B,2 C2 A,2 | G,2 G,2 A,2 G,2 | G,2 G,2 A,4- | A,4 z4 |] %13
V:4
 F,2 F,2 F,2 F,2 | F,2 F,2 F,2 F,2 | G,2 A,2 D,2 C,2 | B,,2 B,,2 C,4 | B,2 A,2 G,2 F,2 | %5
 E,2 D,2 C,2 B,,2 | A,,2 G,,2 F,,2 B,,2 | C,2 C,2 F,,4 | B,,2 B,,2 F,,2 F,,2 | D,2 B,,2 A,,2 F,,2 | %10
 F,2 E,2 D,2 G,,2 | C,2 C,2 F,,4- | F,,4 z4 |] %13

